src/assets/img/providers/max_win_gaming-g.svg

<svg width="110" height="26" viewBox="0 0 110 26" fill="none" xmlns="http://www.w3.org/2000/svg">
<g clip-path="url(#clip0_4416_8331)">
<path fill-rule="evenodd" clip-rule="evenodd" d="M87.5772 1.07905C88.1415 0.263623 88.9422 -0.090308 89.7976 0.123724C90.6605 0.339632 91.2113 0.899213 91.3616 1.7812C91.5116 2.66131 91.1802 3.36545 90.4429 3.8681C89.7868 4.31545 88.7589 4.27592 88.1252 3.79095C87.4219 3.25282 87.1164 2.30719 87.393 1.51365C87.4312 1.40404 87.479 1.29778 87.5334 1.1769L87.5334 1.17684L87.5342 1.17515L87.5345 1.17437C87.5484 1.14365 87.5626 1.11197 87.5772 1.07905ZM79.9155 4.20984L80.233 4.35397L80.2333 4.35411C80.8849 4.65013 81.5174 4.93742 82.1564 5.20914C82.4252 5.32342 82.5001 5.43004 82.3669 5.73108C81.0068 8.80495 79.6574 11.8836 78.3081 14.9623L78.3079 14.9629L78.3075 14.9638L77.464 16.8879C77.2998 17.2624 77.1374 17.6377 76.9593 18.0495C76.8716 18.2522 76.78 18.4638 76.6825 18.6884L72.421 8.93593L68.158 18.6901L62.3399 5.39392C62.4759 5.32989 62.6097 5.26648 62.7421 5.20374L62.743 5.20333C63.0386 5.06319 63.3271 4.92648 63.6175 4.79402C63.8095 4.7064 64.0029 4.62158 64.1963 4.53676L64.1963 4.53674L64.1965 4.53668C64.4868 4.40931 64.7772 4.28195 65.0631 4.14517C65.3363 4.01445 65.4626 4.06596 65.5875 4.35873C66.2105 5.81927 66.8457 7.27457 67.5013 8.77648C67.7175 9.27174 67.9359 9.77206 68.1568 10.2793L72.4208 0.523146L76.6823 10.275L79.4186 4.02269C79.593 4.08539 79.7403 4.13832 79.9155 4.20984ZM6.96508 12.7423C6.81172 12.397 6.67455 12.0814 6.48111 11.6363L6.481 11.6361L3.73501 17.8853L0.657822 16.5231L6.41811 3.33831L6.53824 3.32671L10.7441 12.9483L15.0053 3.1951L20.8295 16.5217C20.6175 16.6157 20.4092 16.7087 20.2033 16.8007C19.7106 17.0209 19.2318 17.2348 18.7494 17.4404C18.6676 17.4753 18.5814 17.5185 18.4939 17.5622C18.2299 17.6943 17.9551 17.8318 17.7591 17.7629C17.5942 17.705 17.5021 17.4331 17.4115 17.1657C17.3751 17.0584 17.339 16.9519 17.2986 16.8603C16.835 15.809 16.3727 14.7571 15.9105 13.7051C15.6533 13.1198 15.3961 12.5346 15.1387 11.9494C15.1209 11.909 15.1004 11.8698 15.0675 11.807L15.0675 11.8069L15.0672 11.8065L15.0672 11.8064C15.0473 11.7685 15.023 11.722 14.992 11.6615L10.7445 21.38L10.7412 21.3725L10.7409 21.3718L10.7392 21.3678L10.7375 21.3641C9.45286 18.4255 8.21704 15.5986 6.96508 12.7423ZM97.478 1.52055L97.478 2.56009V17.1776H100.915V10.7722L109.411 21.0492V5.24179H105.987V11.6128L97.5989 1.46923L97.478 1.52055ZM44.0544 6.18858C44.7879 5.47076 45.498 4.77195 46.1859 4.09483L51.0174 8.70364C51.1766 8.53634 51.3411 8.36219 51.5099 8.18361L51.5101 8.18339L51.5103 8.1832L51.5104 8.18304C51.9019 7.76878 52.3159 7.33075 52.7366 6.89927C53.1853 6.43903 53.6373 5.98202 54.0894 5.52501C54.5236 5.08601 54.9578 4.647 55.3891 4.20514C55.5718 4.01795 55.702 4.06372 55.8634 4.22788C56.5109 4.88646 57.1635 5.54008 57.8194 6.1903C57.9784 6.34794 57.9819 6.47033 57.8173 6.63164C57.2728 7.16551 56.7299 7.70097 56.1869 8.23643L56.1865 8.23678L56.1863 8.23695C55.311 9.10024 54.4356 9.96352 53.5537 10.8201C53.3189 11.0482 53.3543 11.17 53.5681 11.3807C54.733 12.529 55.8895 13.6858 57.0459 14.8426L57.0461 14.8428L57.8354 15.6322C57.8697 15.6665 57.8981 15.7067 57.9282 15.7493L57.9282 15.7493L57.9282 15.7493C57.9427 15.7699 57.9576 15.7911 57.9738 15.8123L55.5381 18.2053L50.8951 13.5133L46.3137 18.2329L43.8356 15.7988L48.5103 11.1823C48.3586 11.0265 48.2106 10.8743 48.065 10.7246L48.0578 10.7172L48.0416 10.7005L48.0401 10.6989C47.7096 10.3592 47.3917 10.0322 47.0725 9.70647L46.5965 9.22045L46.5962 9.22017L46.5961 9.22009L46.5961 9.22001L46.596 9.21992L46.5959 9.21984L46.5958 9.21976L46.5957 9.21967L46.5957 9.21959L46.5956 9.21951C45.7591 8.3654 44.9227 7.51129 44.0801 6.66322L44.0798 6.66287C43.926 6.5081 43.8052 6.38644 44.0544 6.18858ZM87.6125 5.23324V11.1065L87.6125 17.1689H91.0457V5.23324H87.6125ZM50.5354 24.722C50.5732 24.604 50.6115 24.484 50.6503 24.3611L50.9449 23.4526L51.0761 23.4754C51.0799 23.5178 51.0847 23.5602 51.0895 23.6027C51.0999 23.6952 51.1104 23.7878 51.1112 23.8804C51.1144 24.2147 51.1139 24.5491 51.1134 24.8834C51.1132 25.0186 51.113 25.1539 51.113 25.2892C51.1132 25.9786 51.1492 26.0067 51.8524 25.8541V22.3098C51.7749 22.3098 51.6998 22.3119 51.6266 22.3139H51.6266C51.4699 22.3181 51.3218 22.3222 51.176 22.3054C50.7951 22.2614 50.5765 22.377 50.5006 22.7858C50.4464 23.0775 50.3511 23.3619 50.2561 23.6457L50.2561 23.6457C50.2297 23.7245 50.2033 23.8031 50.1779 23.8819C50.119 24.064 50.052 24.2435 49.985 24.423C49.9551 24.503 49.9252 24.5831 49.896 24.6634C49.7225 24.392 49.6483 24.1484 49.5746 23.9063L49.5681 23.8851C49.5384 23.7878 49.5076 23.6908 49.4768 23.5938L49.4766 23.5932L49.4766 23.593C49.4277 23.4389 49.3787 23.2848 49.3343 23.1294C49.0918 22.2813 49.0901 22.2814 48.2281 22.3021L48.1913 22.303C47.8888 22.3102 47.8247 22.4322 47.8282 22.703C47.8402 23.6274 47.8381 24.552 47.8295 25.4764C47.827 25.742 47.8458 25.9202 48.1941 25.9244C48.5507 25.9287 48.6024 25.7671 48.5955 25.4678C48.5844 24.9757 48.5866 24.4833 48.5888 23.9909C48.5897 23.7912 48.5905 23.5915 48.5905 23.3918C48.7242 23.4645 48.7694 23.5487 48.7976 23.6382C48.837 23.7637 48.8766 23.8892 48.9162 24.0146L48.9166 24.0157L48.9167 24.0161C49.08 24.533 49.2433 25.05 49.3939 25.5706C49.4665 25.8217 49.5903 25.9212 49.8604 25.9237C50.1325 25.9261 50.2096 25.7848 50.2722 25.5702C50.3538 25.2901 50.4427 25.0121 50.5354 24.722L50.5354 24.722ZM74.7393 23.0171C74.7393 23.2618 74.7383 23.5031 74.7374 23.7419V23.7428C74.735 24.3323 74.7327 24.9066 74.7451 25.4806C74.7519 25.7921 74.6747 25.9003 74.3352 25.9288C73.829 25.9713 73.5655 25.7914 73.3797 25.3286C73.1814 24.8344 72.9526 24.3523 72.7238 23.8703C72.6267 23.6656 72.5295 23.4608 72.4347 23.2551L72.3065 23.27L72.3065 24.1447C72.3064 24.2921 72.3058 24.4394 72.3052 24.5868V24.5879C72.3038 24.9391 72.3024 25.2904 72.3086 25.6415C72.3132 25.8993 72.1558 25.9514 71.9672 25.9051C71.8283 25.871 71.5975 25.7643 71.5958 25.6858C71.5761 24.7937 71.5773 23.9011 71.5786 22.9863V22.9854C71.5789 22.7623 71.5792 22.5378 71.5792 22.3118C71.6806 22.3118 71.777 22.3092 71.8696 22.3068C72.0836 22.3011 72.2772 22.296 72.4658 22.3242C72.5912 22.343 72.7422 22.4715 72.8035 22.5905C73.01 22.9914 73.2038 23.3989 73.3976 23.8065L73.3979 23.8071L73.3981 23.8074L73.3982 23.8078L73.3984 23.8081L73.3985 23.8084C73.4877 23.996 73.5769 24.1835 73.6673 24.3704C73.7086 24.4558 73.7559 24.5383 73.8031 24.6209C73.8249 24.659 73.8467 24.6971 73.868 24.7354L73.9983 24.7132C73.9983 24.5174 73.9981 24.3216 73.9978 24.1258C73.9972 23.6553 73.9966 23.1848 73.9995 22.7144C74.0017 22.3567 74.328 22.131 74.5958 22.3452C74.6875 22.4185 74.7003 22.5904 74.7141 22.7754C74.7201 22.8558 74.7263 22.9387 74.7393 23.0171ZM87.3587 25.0255V25.0247V23.991L87.0177 23.9909C86.7912 23.9907 86.5849 23.9907 86.3786 23.9911C85.8351 23.9922 85.8121 24.0233 85.9538 24.5746L86.6301 24.6255C86.6107 24.7112 86.6002 24.8025 86.59 24.8909C86.5687 25.0756 86.5489 25.247 86.4531 25.3256C86.0866 25.6262 85.1637 25.3066 85.0338 24.8378C84.9351 24.4813 84.9039 24.085 84.9422 23.7168C84.9993 23.1681 85.3015 22.8819 85.7557 22.8175C86.239 22.749 86.5339 22.9733 86.643 23.4101H87.361C87.3805 22.8077 87.1018 22.436 86.5012 22.29C85.7754 22.1135 85.0754 22.1911 84.5506 22.7636C83.9589 23.4092 83.9062 24.2034 84.1989 24.9903C84.4829 25.754 85.1517 25.97 85.9026 25.99C86.1074 25.9955 86.3137 25.9928 86.5175 25.9743C87.3587 25.8979 87.3587 25.8951 87.3587 25.0255ZM25.9828 24.6407V24.6408V24.6408V24.6409V24.6409C25.9868 24.8697 25.9908 25.0933 26.0127 25.3151C26.0511 25.7038 25.9057 25.9026 25.5276 25.918C25.4112 25.9227 25.2943 25.9298 25.1772 25.9369C24.8106 25.9592 24.4425 25.9815 24.0855 25.9315C23.2232 25.8107 22.7512 25.2316 22.7052 24.3661C22.649 23.3088 23.0862 22.5555 23.9197 22.3134C24.4727 22.1528 25.0238 22.1567 25.5368 22.4619C25.8784 22.665 26.0548 22.9627 26.0168 23.3991C25.956 23.4045 25.8964 23.4137 25.8382 23.4227L25.8382 23.4227C25.5571 23.4661 25.3091 23.5044 25.1238 23.0847C24.9056 22.5906 23.8863 22.74 23.723 23.3089C23.5924 23.7641 23.5841 24.2906 23.665 24.7608C23.7562 25.2899 24.6232 25.6317 25.064 25.3328C25.166 25.2636 25.1948 25.0864 25.2255 24.8966L25.2255 24.8966C25.2402 24.8059 25.2554 24.7124 25.2792 24.6264L24.556 24.5664V24.0246C25.0181 24.0246 25.4778 24.0246 25.9619 24.0551C25.9759 24.2554 25.9794 24.4499 25.9828 24.6407ZM61.9587 22.3097L61.9525 22.3053C61.7328 22.2993 61.549 22.2993 61.3242 22.2993L61.3242 23.2266L61.3243 25.296C61.3244 25.9804 61.3659 26.0122 62.089 25.8464L62.089 25.3498C62.0891 24.384 62.0893 23.4125 62.0847 22.4411C62.0845 22.399 62.0256 22.3572 61.9587 22.3097ZM32.1596 3.60944C31.2369 5.10283 30.3538 6.5321 29.4544 7.98908C27.5794 11.0442 25.7207 14.0716 23.8422 17.1314L23.8356 17.142L26.8074 18.9736C26.8981 18.8271 26.9857 18.6827 27.072 18.5405L27.0721 18.5403C27.2934 18.1755 27.5061 17.8248 27.7411 17.4899C27.8376 17.3523 28.0556 17.2219 28.2188 17.2209C30.8477 17.2043 33.4767 17.2043 36.1056 17.2213C36.2648 17.2223 36.4752 17.3604 36.5721 17.4979C36.8132 17.8399 37.0334 18.1966 37.2562 18.5574L37.2562 18.5574L37.2562 18.5574L37.2563 18.5576L37.2564 18.5578C37.3418 18.696 37.4275 18.8348 37.5149 18.9737L40.4784 17.1357L32.1596 3.60944ZM34.2962 13.7327L34.0075 13.259C33.7038 12.7606 33.4131 12.2847 33.111 11.7942C32.8674 11.4015 32.6351 11.0236 32.3887 10.6216L32.1533 10.2372L30.018 13.7327H30.0181L30.018 13.7328H34.2962L34.2962 13.7327ZM38.1566 24.529C38.3167 24.9836 38.4655 25.4052 38.6163 25.8322L38.6169 25.8342C37.9362 25.9902 37.9062 25.9828 37.698 25.4173C37.6217 25.2101 37.5224 25.1012 37.2892 25.128C37.1302 25.1463 36.9643 25.152 36.8071 25.1275C36.3843 25.0616 36.1134 25.1855 36.0198 25.6384C35.9589 25.9327 35.7898 25.9283 35.5842 25.9231C35.4636 25.92 35.3305 25.9166 35.1993 25.9728C35.2511 25.812 35.2977 25.6642 35.3414 25.5253C35.4302 25.2432 35.5075 24.998 35.5935 24.7559C35.6827 24.505 35.7767 24.2557 35.8707 24.0064L35.8709 24.0057L35.871 24.0056C36.0401 23.5572 36.2091 23.1089 36.3499 22.6517C36.4554 22.3093 36.6694 22.311 36.8965 22.3129C36.9558 22.3134 37.016 22.3139 37.0755 22.3082C37.357 22.2816 37.4494 22.4277 37.5247 22.6684C37.6608 23.1036 37.811 23.5343 37.9652 23.9768L37.9653 23.9771L37.9653 23.9772C38.0287 24.1588 38.0926 24.3424 38.1566 24.529ZM36.8458 24.5619L37.42 24.5197L37.42 24.5197L36.9158 23.0578L36.397 24.5335L36.397 24.5335L36.5168 24.5425C36.6253 24.5506 36.7065 24.5562 36.8086 24.5618L36.8234 24.5609L36.8458 24.5619Z" fill="#00AB55"/>
</g>
<defs>
<clipPath id="clip0_4416_8331">
<rect width="108.847" height="26" fill="white" transform="translate(0.576263 0.000976562)"/>
</clipPath>
</defs>
</svg>

<svg xmlns="http://www.w3.org/2000/svg" width="110" height="26" fill="none"><g clip-path="url(#a)"><path fill="#00AB55" fill-rule="evenodd" d="M87.577 1.079c.564-.815 1.365-1.17 2.22-.955.864.216 1.414.775 1.565 1.657.15.88-.182 1.584-.92 2.087-.655.447-1.683.408-2.317-.077-.703-.538-1.009-1.484-.732-2.277.038-.11.086-.216.14-.337l.001-.002.043-.096Zm-7.662 3.13.318.145c.652.296 1.284.583 1.923.855.27.114.344.221.21.522-1.36 3.074-2.709 6.153-4.058 9.231v.002l-.844 1.924a252.625 252.625 0 0 0-.781 1.8L72.42 8.936l-4.263 9.754L62.34 5.394l.402-.19h.001c.296-.14.584-.278.874-.41.193-.088.386-.172.58-.257.29-.128.58-.255.866-.392.273-.13.4-.079.525.214A573.62 573.62 0 0 0 67.5 8.776l.656 1.503L72.42.523l4.261 9.752 2.737-6.252c.174.062.321.115.496.187Zm-72.95 8.533c-.153-.345-.29-.66-.484-1.106l-2.746 6.25-3.077-1.363 5.76-13.185.12-.011 4.206 9.621 4.261-9.753 5.824 13.327-.626.279c-.492.22-.971.434-1.454.64-.081.034-.168.078-.255.121-.264.132-.539.27-.735.2-.165-.057-.257-.329-.348-.596-.036-.108-.072-.214-.112-.306a2533.465 2533.465 0 0 1-2.16-4.91 2.384 2.384 0 0 0-.071-.143l-.076-.146-4.248 9.719-.003-.008-.002-.004-.002-.004c-1.284-2.939-2.52-5.765-3.772-8.622ZM97.478 1.521v15.657h3.437v-6.406l8.496 10.277V5.242h-3.424v6.37L97.599 1.47l-.121.052ZM44.054 6.189c.734-.718 1.444-1.417 2.132-2.094l4.831 4.609.493-.52v-.001a113.902 113.902 0 0 1 2.58-2.658c.434-.439.868-.878 1.3-1.32.182-.187.312-.141.473.023.648.658 1.3 1.312 1.956 1.962.16.158.163.28-.002.442l-1.63 1.604c-.876.864-1.751 1.728-2.633 2.584-.235.228-.2.35.014.56a667.73 667.73 0 0 1 3.478 3.463l.79.79c.034.034.062.074.092.116l.046.063-2.436 2.393-4.643-4.692-4.581 4.72-2.478-2.434 4.674-4.617-.445-.457-.007-.008-.016-.017-.002-.001c-.33-.34-.648-.667-.968-.993l-.476-.486c-.837-.855-1.673-1.709-2.516-2.557-.154-.155-.275-.277-.026-.474Zm43.558-.956V17.17h3.434V5.233h-3.434ZM50.535 24.722a89.6 89.6 0 0 0 .115-.36l.295-.91.131.023.014.128c.01.092.02.185.021.277a90.633 90.633 0 0 1 .002 1.41c0 .689.036.717.74.564V22.31c-.078 0-.153.002-.226.004-.157.004-.305.008-.451-.009-.38-.044-.6.072-.675.48-.055.293-.15.577-.245.86l-.078.237c-.059.182-.126.361-.193.541l-.089.24c-.174-.271-.248-.515-.321-.757l-.007-.02-.091-.292v-.001c-.05-.154-.098-.308-.143-.464-.242-.848-.244-.848-1.106-.827l-.037.001c-.302.007-.366.13-.363.4.012.924.01 1.849.002 2.773-.003.266.016.444.364.448.357.005.408-.157.401-.456a54.666 54.666 0 0 1-.006-1.477l.002-.6a.389.389 0 0 1 .207.247l.118.377v.001c.164.517.327 1.034.478 1.555.073.25.196.35.466.353.273.002.35-.14.412-.354.082-.28.17-.558.263-.848Zm24.204-1.705c0 .245 0 .486-.002.725-.002.59-.004 1.165.008 1.739.007.311-.07.42-.41.448-.506.042-.77-.138-.955-.6a25.974 25.974 0 0 0-.656-1.459c-.097-.204-.195-.41-.29-.615l-.127.015v.875l-.002.442c-.001.352-.003.703.004 1.055.004.257-.153.31-.342.263-.139-.034-.37-.14-.371-.22-.02-.891-.019-1.784-.017-2.699v-.674c.102 0 .198-.003.29-.005.215-.006.408-.011.597.017.125.019.276.147.338.266.206.401.4.809.594 1.216v.002c.09.188.179.375.27.562.04.086.088.168.135.25l.065.115.13-.022v-.587c0-.47-.001-.941.001-1.412.003-.357.329-.583.597-.369.091.074.104.245.118.43.006.08.012.164.025.242Zm12.62 2.009V23.99H86.378c-.543.001-.566.032-.424.584l.676.05c-.02.086-.03.177-.04.266-.021.185-.041.356-.137.435-.366.3-1.29-.02-1.42-.488a3.093 3.093 0 0 1-.09-1.121c.056-.549.359-.835.813-.9.483-.068.778.156.887.593h.718c.02-.602-.26-.974-.86-1.12-.726-.177-1.426-.099-1.95.474-.592.645-.645 1.44-.352 2.226.284.764.953.98 1.704 1 .204.006.41.003.614-.016.842-.076.842-.079.842-.948Zm-61.376-.385c.004.229.008.452.03.674.038.389-.107.588-.485.603-.117.005-.234.012-.35.019-.367.022-.736.044-1.093-.006-.862-.12-1.334-.7-1.38-1.565-.056-1.057.381-1.81 1.215-2.053.553-.16 1.104-.156 1.617.149.341.203.518.5.48.937-.061.005-.12.015-.179.024-.28.043-.529.081-.714-.338-.218-.494-1.238-.345-1.401.224a3.36 3.36 0 0 0-.058 1.452c.091.529.958.87 1.399.572.102-.07.13-.247.162-.436.014-.091.03-.185.053-.27l-.723-.06v-.542c.462 0 .922 0 1.406.03.014.2.017.395.02.586Zm35.976-2.331-.007-.005c-.22-.006-.403-.006-.628-.006v2.997c0 .684.042.716.765.55v-.496c0-.966 0-1.938-.004-2.909 0-.042-.06-.084-.126-.131Zm-29.8-18.7-2.705 4.38-5.612 9.141-.006.011 2.971 1.832.265-.433c.221-.366.434-.716.67-1.051.096-.138.314-.268.477-.27 2.629-.016 5.258-.016 7.887.001.159.001.37.14.466.277.241.342.461.699.684 1.06l.259.416 2.963-1.838L32.16 3.609Zm2.137 10.123-.288-.474a356.294 356.294 0 0 0-1.62-2.637l-.235-.385-2.135 3.496h4.278Zm3.86 10.796.46 1.303v.002c-.68.156-.71.149-.918-.417-.076-.207-.176-.316-.409-.289a1.818 1.818 0 0 1-.482 0c-.423-.066-.694.058-.787.51-.061.295-.23.29-.436.285a.884.884 0 0 0-.385.05c.052-.161.099-.309.142-.448.09-.282.166-.527.252-.77.09-.25.184-.5.278-.749.17-.449.338-.897.479-1.354.105-.343.32-.341.547-.34.059.001.119.002.178-.004.282-.026.374.12.45.36.136.436.286.866.44 1.309l.192.552Zm-1.31.033.574-.042-.504-1.462-.519 1.476.12.009.292.019.014-.001h.023Z" clip-rule="evenodd"/></g><defs><clipPath id="a"><path fill="#fff" d="M.576.001h108.847v26H.576z"/></clipPath></defs></svg>
